X:1
T:Skara Brae, 11.11.11.11
T:Skara Brae, 11.11.11.11
T:J. Herbert Cleworth, 1915
T:Public Domain Courtesy of the Cyber Hymnal™
C:J. Herbert Cleworth, 1915
Z:Public Domain
Z:Courtesy of the Cyber Hymnal™
%%score ( 1 2 ) ( 3 4 ) ( 5 6 )
L:1/8
Q:1/4=110
M:4/4
K:Eb
V:1 treble 
V:2 treble 
V:3 treble 
V:4 treble 
V:5 bass 
V:6 bass 
V:1
 B3 B B2 B2 | c4 B4 | G2 (FE) F2 B2 x4 | G8 | B3 B B2 B2 | c4 B4 | =A2 (GF) G2 A2 | B8 | %8
 [EG]3 [EG] [DG]2 [DF]2 | B4 [EB]4 |!<(! [Ec]3 [Ec]!<)! [Ac]2 [Gc]2 | [Fd]8 | %12
!>(! [Ee]3 [Ee]!>)! [Fd]2 [FG]2 | [Ec]2 [=EB]2 [FA]4 | [EG]2 [EA]2 [DF]3 [DF] | E8 |] %16
V:2
 x8 | x8 | x12 | x8 | x8 | x8 | x8 | x8 | x8 | E2 D2 x4 | x8 | x8 | x8 | x8 | x8 | E8 |] %16
V:3
 d8 | ([^Fc]4 [GB]4) | B8 [DA]4 | [EGB]8 | B4 e2 B2 | [Ac]4 [GB]4 | =A2 (GF) c4 | B6 [FA]2 | x8 | %9
 x8 | x8 | x8 | x8 | x8 | x8 | x8 |] %16
V:4
 (E4 G4) | x8 | [EG]4 x8 | x8 | E2 F2 G4 | x8 | F4 G2 =A2 | B2 A2 G2 x2 | x8 | x8 | x8 | x8 | x8 | %13
 x8 | x8 | x8 |] %16
V:5
"^Organ" (G,4 B,4) | (=A,4 B,4) | (G,2 F,E, F,2 B,2) x4 | [E,B,]8 | G,2 A,2 B,4 | C2 D2 E4 | %6
 [F,E]8 | D2 C2 B,4 | [E,B,]3 [E,B,] [A,B,]2 [A,B,]2 | [G,B,]2 [F,A,]2 [E,G,]4 | %10
!<(! A,3 A,!<)! A,2 A,2 | [A,B,]8 |!>(! [G,B,]3 [G,B,]!>)! [G,=B,]2 [G,B,]2 | C4 [F,C]4 | %14
 [B,,B,]2 [B,,C]2 [B,,A,]3 [B,,A,] | [E,G,]8 |] %16
V:6
 E,8 | E,8 | B,,8 x4 | x8 | E,8 | E,8 | x8 | B,,8 | x8 | x8 | A,3 A, A,2 A,2 | x8 | x8 | %13
 A,2 G,2 x4 | x8 | x8 |] %16

